X:1
T:E minor Daniel Read, 1785
T:Isaac Watts, 1719 (Psalm 89)   88. 88. 88.
T:Sudbury
T:No copyright. Transcribed from The American Singing-Book, 1786.
%%score [ 1 2 3 4 ]
L:1/8
M:none
K:G
V:1 treble nm="Treble" snm="Tr."
V:2 treble nm="Counter" snm="C."
V:3 treble-8 nm="Tenor" snm="T."
V:4 bass nm="Bass" snm="B."
V:1
 E8 | B2 B2 B4 | A4 B2 d2 | e8 | e8 | B2 G2 A4 | B4 c2 c2 | B8 | B8 | G2 A2 B4 | e4 d2 d2 | e8 | %12
w: 1.~Think,|might- ty God,|on fee- ble|man;|How|few his hours!|How short his|span!|Short|from the cra-|dle to the|grave;|
 e8 | B2 B2 c4 | d4 c2 B2 | B8 | B8 | e2 d2 e4 | B4 B2 c2 | d8 | e8 | B2 B2 B4 | B4 c2 B2 | B8 | %24
w: Who|can se- cure|his vi- tal|breath|A-|gainst the bold|de- mands of|death,|With|skill to fly,|or power to|save?|
V:2
 E8 | E2 G2 F4 | F4 E2 F2 | G8 | z4 G4 | G2 F2 E4 | E4 D2 E2 | F8 | z4 E4 | D2 D2 D4 | G4 F2 F2 | %11
w: 2.~Lord,|shall it be|for- ev- er|said,|"The|race of man|was on- ly|made|For|sick- ness, sor-|row, and the|
 G8 | z4 G4 | G2 (FG) A4 | B4 A2 F2 | G8 | z4 G4 | G2 F2 G4 | E4 E2 F2 | F8 | z4 E4 | E2 D2 D4 | %22
w: dust?"|Are|not Thy * ser-|vants day by|day|Sent|to their graves,|and turned to|clay;|Lord,|where's Thy kind-|
 E4 E2 D2 | E8 | %24
w: ness to the|just?|
V:3
 B8 | B2 e2 d4 | c4 B2 A2 | B8 | z4 B4 | e2 d2 e4 | B4 A2 G2 | F8 | z4 G4 | B2 c2 B4 | B4 G2 F2 | %11
w: 3.~Hast|Thou not pro-|mised to Thy|Son|And|all His seed|a heav'n- ly|crown?|But|flesh and sense|in- dulge ges-|
 E8 | z4 B4 | B2 d2 e4 | g4 e2 d2 | e8 | z4 e4 | B2 B2 B4 | G4 d2 c2 | B8 | z4 B4 | G2 A2 B4 | %22
w: pair:|For|ev- er bles-|sed be the|Lord,|That|faith can read|His ho- ly|word,|And|find a res-|
 G4 F2 F2 | E8 | %24
w: su- rec- tion|there.|
V:4
 E,8 | E,2 E,2 B,,4 | F,4 G,2 F,2 | E,8 | E,8 | E,2 B,2 A,4 | G,4 F,2 E,2 | B,,8 | E,8 | %9
w: 4.~For|ev- er bles-|sed be the|Lord,|Who|gives His saints|a long re-|ward|For|
 G,2 F,2 G,4 | E,4 B,,2 B,,2 | E,8 | E,8 | E,2 B,2 A,4 | G,4 A,2 B,2 | E,8 | E,8 | E,2 B,,2 E,4 | %18
w: all their toil,|re- proach, and|pain:|Let|all be- low|and all a-|bove|Join|to pro- claim|
 E,4 G,2 A,2 | B,8 | E,8 | E,2 F,2 G,4 | E,4 A,,2 B,,2 | [E,,E,]8 | %24
w: Thy won- drous|love,|And|each re- peat|their Loud A-|men.|

